src/images/shelf-5.svg

<svg xmlns="http://www.w3.org/2000/svg" width="768" height="88" fill="none" viewBox="0 0 768 88"><g clip-path="url(#clip0)"><path fill="#F96132" fill-rule="evenodd" stroke="#F96132" stroke-linecap="round" stroke-linejoin="round" stroke-width="2.061" d="M1.19287 0.918945H765.677V29.0497H1.19287V0.918945Z" clip-rule="evenodd"/><path fill="#35416B" fill-rule="evenodd" stroke="#35416B" stroke-linecap="round" stroke-linejoin="round" stroke-width="2.061" d="M1.75 28.5227L766.807 29.6468L736.932 39.7692L36.0152 40.0619L1.75 28.5227Z" clip-rule="evenodd"/><path fill="#35416B" fill-rule="evenodd" stroke="#35416B" stroke-linecap="round" stroke-linejoin="round" stroke-width="2.061" d="M118.115 84.4156L107.671 61.9402L97.2597 39.4766C95.6053 35.9112 98.3175 33.0366 103.321 33.0366L117.55 32.8727C118.987 32.8358 120.419 33.0237 121.75 33.4238C123.081 33.8239 124.282 34.4273 125.274 35.194C126.265 35.9608 127.024 36.8736 127.501 37.8721C127.978 38.8706 128.162 39.9323 128.041 40.987L124.152 84.4448C122.457 87.9809 119.769 87.9809 118.115 84.4156Z" clip-rule="evenodd"/><path fill="#35416B" fill-rule="evenodd" stroke="#35416B" stroke-linecap="round" stroke-linejoin="round" stroke-width="2.061" d="M671.671 82.2669L682.114 59.7915L692.558 37.3162C694.212 33.7508 691.5 30.8762 686.497 30.8762L672.275 30.7065C670.837 30.6705 669.406 30.8592 668.074 31.2599C666.742 31.6607 665.541 32.2645 664.549 33.0316C663.557 33.7987 662.797 34.7117 662.319 35.7105C661.841 36.7094 661.656 37.7714 661.776 38.8266L665.674 82.2844C667.328 85.8323 670.016 85.8323 671.671 82.2669Z" clip-rule="evenodd"/></g><defs><clipPath id="clip0"><rect width="768" height="87.928" fill="#fff" transform="translate(0 0.0410156)"/></clipPath></defs></svg>

<svg fill="none" viewBox="0 0 768 88"><g fill-rule="evenodd" stroke-linecap="round" stroke-linejoin="round" stroke-width="2.061" clip-path="url(#clip0)" clip-rule="evenodd"><path fill="#F96132" stroke="#F96132" d="M1.193.919h764.484v28.13H1.193V.92z"/><path fill="#35416B" stroke="#35416B" d="M1.75 28.523l765.057 1.124-29.875 10.122-700.917.293L1.75 28.522z"/><path fill="#35416B" stroke="#35416B" d="M118.115 84.416L107.671 61.94 97.26 39.477c-1.655-3.566 1.057-6.44 6.061-6.44l14.229-.164a13.461 13.461 0 014.2.55c1.331.4 2.532 1.004 3.524 1.771.991.767 1.75 1.68 2.227 2.678.477.999.661 2.06.54 3.115l-3.889 43.458c-1.695 3.536-4.383 3.536-6.037-.03zm553.556-2.15l10.443-22.475 10.444-22.475c1.654-3.565-1.058-6.44-6.061-6.44l-14.222-.17a13.478 13.478 0 00-4.201.554c-1.332.4-2.533 1.004-3.525 1.772-.992.767-1.752 1.68-2.23 2.679a5.681 5.681 0 00-.543 3.116l3.898 43.457c1.654 3.548 4.342 3.548 5.997-.017z"/></g><defs><clipPath id="clip0"><path fill="#fff" d="M0 0h768v87.928H0z" transform="translate(0 .041)"/></clipPath></defs></svg>
